img/header/arrow-prev.svg

<?xml version="1.0" encoding="UTF-8"?>
<svg width="20px" height="36px" viewBox="0 0 20 36" version="1.1" xmlns="http://www.w3.org/2000/svg" xmlns:xlink="http://www.w3.org/1999/xlink">
    <!-- Generator: Sketch 46.2 (44496) - http://www.bohemiancoding.com/sketch -->
    <title>arrow-prev</title>
    <desc>Created with Sketch.</desc>
    <defs></defs>
    <g id="Page-1" stroke="none" stroke-width="1" fill="none" fill-rule="evenodd">
        <g id="arrow-prev" fill="#FFFFFF">
            <path d="M2.84217094e-14,18 C2.84217094e-14,17.4607414 0.204624272,16.9214828 0.613872817,16.5100423 L16.422087,0.617160669 C17.2405841,-0.205720223 18.5676301,-0.205720223 19.3861272,0.617160669 C20.2046243,1.44004156 20.2046243,2.77419509 19.3861272,3.59707598 L5.05993306,18 L19.3861272,32.402924 C20.2046243,33.2258049 20.2046243,34.5599584 19.3861272,35.3828393 C18.5676301,36.2057202 17.2405841,36.2057202 16.422087,35.3828393 L0.613872817,19.4899577 C0.204624272,19.0785172 0,18.5392586 0,18 L2.84217094e-14,18 Z" id="Combined-Shape"></path>
        </g>
    </g>
</svg>

<svg width="20" height="36" viewBox="0 0 20 36" xmlns="http://www.w3.org/2000/svg"><title>arrow-prev</title><desc>Created with Sketch.</desc><path d="M0 18c0-.539.205-1.079.614-1.49l15.808-15.893c.818-.823 2.146-.823 2.964 0 .818.823.818 2.157 0 2.98l-14.326 14.403 14.326 14.403c.818.823.818 2.157 0 2.98s-2.146.823-2.964 0l-15.808-15.893c-.409-.411-.614-.951-.614-1.49z" fill="#fff"/></svg>
